assets/fc/fc-podium-with-speaker.svg

<svg xmlns="http://www.w3.org/2000/svg" width="100%" height="100%" viewBox="0 0 48 48"><circle cx="24" cy="11" r="6" fill="#FFB74D"/><path fill="#607D8B" d="M36 26.1S32.7 19 24 19s-12 7.1-12 7.1V30h24v-3.9z"/><path fill="#B0BEC5" d="M41 25H7l-1 4 5 3-2-3h30l-2 3 5-3z"/><path fill="#78909C" d="M9 29h30l-4 12H13z"/></svg>

<svg xmlns="http://www.w3.org/2000/svg" width="100%" height="100%" viewBox="0 0 48 48"><circle cx="24" cy="11" r="6" fill="#FFB74D"/><path fill="#607D8B" d="M36,26.1c0,0-3.3-7.1-12-7.1s-12,7.1-12,7.1V30h24V26.1z"/><path fill="#B0BEC5" d="M41 25L7 25 6 29 11 32 9 29 39 29 37 32 42 29z"/><path fill="#78909C" d="M9 29L39 29 35 41 13 41z"/></svg>
